X: 565
T: Jämtpolska efter Carl Sved
R: Polska
S: efter Carl Sved
S: Känd genom [[!Hulling]]
O: Hälsingland/Jämtland
D: Hulling
N: SL Hälsingland 167
N: [[http://www.smus.se/earkiv/fmk/browselarge.php?lang=sw&katalogid=Hs+15&bildnr=00011|SMUS]]
Z: Håkan Lidén, 2008-09-28
M: 9/8
L: 1/4
K: D
A, D/-D3/2 F E/ | C/E/ E D F A/ | B/A/ G F E D/ | C/E/D/- D3/2 A,3/2- |
A, D/-D3/2 F E/ | C/E/ E D F A/ | B/A/ G F E D/ | C/E D3 :|
|: A f e c e/ | a/f/ d c A3/2- | A G/ E/G/E/ D/F/D/ | C/E/D/- D3/2 A,3/2- |
A, f e c e/ | a/f/ d c A3/2- | A G/ E/G/E/ D/F/D/ | C/E D3 :|]
(:musicend:)
[[!Kategori:Ovanligt taktartsval]].
(:music:)
